docs/tip.svg

<?xml version="1.0" encoding="UTF-8" standalone="no"?>
<svg
   xmlns:dc="http://purl.org/dc/elements/1.1/"
   xmlns:cc="http://creativecommons.org/ns#"
   xmlns:rdf="http://www.w3.org/1999/02/22-rdf-syntax-ns#"
   xmlns:svg="http://www.w3.org/2000/svg"
   xmlns="http://www.w3.org/2000/svg"
   viewBox="0 0 16 16"
   version="1.1"
   id="svg8175"
   height="16"
   width="16">
  <defs
     id="defs8177" />
  <metadata
     id="metadata8180">
    <rdf:RDF>
      <cc:Work
         rdf:about="">
        <dc:format>image/svg+xml</dc:format>
        <dc:type
           rdf:resource="http://purl.org/dc/dcmitype/StillImage" />
        <dc:title></dc:title>
      </cc:Work>
    </rdf:RDF>
  </metadata>
  <g
     id="layer1">
    <path
       id="path11"
       d="m 5,9 0,5 c 0,1.1045 0.8955,2 2,2 l 1,0 c 1.1045,0 2,-0.8955 2,-2 L 10,9 9,9 6,9 Z"
       style="fill:#808080;stroke:none;fill-opacity:1" />
    <path
       id="path13"
       d="M 7.5 0 C 4.462875 0 2 2.462875 2 5.5 C 2 7.6358668 3.2207698 9.4835431 5 10.394531 L 5 11 L 7.5 11 L 10 11 L 10 10.394531 C 11.77923 9.4835431 13 7.6358668 13 5.5 C 13 2.462875 10.537125 0 7.5 0 z "
       style="fill:#fbc02d;stroke:none;fill-opacity:1" />
    <path
       id="path12703"
       d="M 6.078125,12.828125 8.84375,11.15625"
       style="fill:none;fill-rule:evenodd;stroke:#ffffff;stroke-width:1px;stroke-linecap:round;stroke-linejoin:miter;stroke-opacity:1;opacity:0.5" />
    <path
       id="path9"
       d="M 5.5,4 C 4.672875,4 4,4.672875 4,5.5 4,6.327125 4.672875,7 5.5,7 L 6,7 6,11 7,11 7,7 8,7 8,11 9,11 9,7 9.5,7 C 10.327125,7 11,6.327125 11,5.5 11,4.672875 10.327125,4 9.5,4 8.672875,4 8,4.672875 8,5.5 L 8,6 7,6 7,5.5 C 7,4.672875 6.327125,4 5.5,4 Z m 0,1 C 5.775875,5 6,5.224625 6,5.5 L 6,6 5.5,6 C 5.224125,6 5,5.775375 5,5.5 5,5.224625 5.224125,5 5.5,5 Z m 4,0 C 9.775875,5 10,5.224625 10,5.5 10,5.775375 9.775875,6 9.5,6 L 9,6 9,5.5 C 9,5.224625 9.224125,5 9.5,5 Z"
       style="opacity:0.4;fill:#4b3601;stroke:none;fill-opacity:1" />
    <path
       style="fill:none;fill-rule:evenodd;stroke:#ffffff;stroke-width:1px;stroke-linecap:round;stroke-linejoin:miter;stroke-opacity:1;opacity:0.5"
       d="M 6.078125,14.828125 8.84375,13.15625"
       id="path12705" />
  </g>
</svg>

<?xml version="1.0" encoding="UTF-8"?>
<svg id="svg8175" width="16" height="16" version="1.1" viewBox="0 0 16 16" xmlns="http://www.w3.org/2000/svg" xmlns:cc="http://creativecommons.org/ns#" xmlns:dc="http://purl.org/dc/elements/1.1/" xmlns:rdf="http://www.w3.org/1999/02/22-rdf-syntax-ns#">
 <metadata id="metadata8180">
  <rdf:RDF>
   <cc:Work rdf:about="">
    <dc:format>image/svg+xml</dc:format>
    <dc:type rdf:resource="http://purl.org/dc/dcmitype/StillImage"/>
    <dc:title/>
   </cc:Work>
  </rdf:RDF>
 </metadata>
 <g id="layer1">
  <path id="path11" d="m5 9v5c0 1.1045 0.8955 2 2 2h1c1.1045 0 2-0.8955 2-2v-5h-1-3z" style="fill:#808080"/>
  <path id="path13" d="m7.5 0c-3.0371 0-5.5 2.4629-5.5 5.5 0 2.1359 1.2208 3.9835 3 4.8945v0.60547h2.5 2.5v-0.60547c1.7792-0.91099 3-2.7587 3-4.8945 0-3.0371-2.4629-5.5-5.5-5.5z" style="fill:#fbc02d"/>
  <path id="path12703" d="m6.0781 12.828 2.7656-1.6719" style="fill:none;opacity:.5;stroke-linecap:round;stroke-width:1px;stroke:#fff"/>
  <path id="path9" d="m5.5 4c-0.82712 0-1.5 0.67288-1.5 1.5s0.67288 1.5 1.5 1.5h0.5v4h1v-4h1v4h1v-4h0.5c0.82712 0 1.5-0.67288 1.5-1.5s-0.67288-1.5-1.5-1.5-1.5 0.67288-1.5 1.5v0.5h-1v-0.5c0-0.82712-0.67288-1.5-1.5-1.5zm0 1c0.27588 0 0.5 0.22462 0.5 0.5v0.5h-0.5c-0.27588 0-0.5-0.22462-0.5-0.5s0.22412-0.5 0.5-0.5zm4 0c0.27588 0 0.5 0.22462 0.5 0.5s-0.22412 0.5-0.5 0.5h-0.5v-0.5c0-0.27538 0.22412-0.5 0.5-0.5z" style="fill:#4b3601;opacity:.4"/>
  <path id="path12705" d="m6.0781 14.828 2.7656-1.6719" style="fill:none;opacity:.5;stroke-linecap:round;stroke-width:1px;stroke:#fff"/>
 </g>
</svg>
